X: 10937
T: Drummer, The
R: reel
M: 4/4
K: Gminor
M:2/4
|:D|G>A BG|D2- DE|F2 FG|A>B cA|
G>A BG|D2- De|dc BA|G2- G:|
|:F|B>B Bd|c>c cA|B>B Bd|cA GF|
B>B Bd|c>c ce|dc BA|G2- G:|

